!!!OTL: Ich hab die Nacht getr„umet wohl einen schweren Traum
!!!SCT: T0003A
!!!YEM: Copyright 1995, estate of Helmut Schaffrath.
**kern
*ICvox
*Ivox
*M6/8
*k[f#]
*e:
{8B
=1
4e
8f#
8.gn
16f#
8e
=2
4.b
4f#}
{8a
=3
8.gn
16f#
8e
4d#
8e
=4
4.f#
4r}
{8B
=5
4b
8b
8.gn
16f#
8e
=6
4.ee
4ccn}
{8a
=7
8.gn
16f#
8e
8.f#
16e
8d#
=8
4.e
4r}
==
!!!AGN: Barbara
!! bekannt
!!!ONB: ESAC (Essen Associative Code) Database: TEST
!!!AMT: compound duple
!!!AIN: vox
!!!EED: Helmut Schaffrath
!!!EEV: 1.0
*-
